X: 39270
T: Tailor's Twist, The
R: hornpipe
M: 4/4
K: Dmajor
|:FE|DA FD AF dA|Bg ed ce ag|fe dc BG ed|cA Bc AG{FA}FD|
DA FD AD dA|Bg ed ce ag|fe dc BG ec|df ec d2:|
|:fg|~abaf de fg|ba {a}gf eA ce|{f}~gf gd cd ef|ga fg eg fe|
d2 (3gfe dD FA|Bg ed ce ag|fe dc BG ec|d/c/d ec d2:|

